X: 46
T: Song of the Elks
C: Teton Sioux band 1911-1914
N: Derived from sioux046.krn
O: South Dakota, U.S.A.
N: Teton Sioux Music by Frances Densmore, 1918
Z: transcribed to **kern format by Craig Sapp
L: 1/16
M: 3/4
Q: 1/4=58
K: Db clef=bass
%%linebreak <none>
E E [I:setbarnb 1]| 
E4E D D DB,4 | 
E2< E2 E D D B,- B,2 (3D C B, ||  
[M:2/4]B,6B,2 | 
B,8 | 
B,8 ]|:  
D2 D2D4 | 
D B, B, F, F,2 F,2 | 
B,2< B,2 D F, F, E, ||  
[M:3/4]F, E, E,2-E,8 ||  
[M:2/4]E,2 E,2E,4 ||  
[M:3/4]E,2 E,2 D,2< D,2B,,4 ||  
[M:2/4]E,2< E,2E,4 ||  
[M:3/4](3D,2 D,2 D,2 D,2< D,2 D,2 D,2 ||  
[M:2/4]B,,6B,,2 | 
B,,6B,,2 | 
B,,4B,,4 :|]  



